X:1505
T:The Gates of Edinburgh
P:The Gates of Edinburgh
C:Traditional?
R:Reel (8x32)
B:RSCDS 15-5
Z:Anselm Lingnau <anselm@strathspey.org>
M:C
L:1/8
K:Dm
"Bb"CDFG "F"A2f2 | cAGF "Bb"G2FD | "F/A"F2f2 "A7"c2AG | "Gm"F2 D2-"Dm"D2 "C7"G2 |
"F"A2Ac A2Ac | fcAF "Bb"G2FD | "F/A"F2f2 "A7"c2AG | "Gm"F2 D2-"Dm"D2 ||
"C7"G2 | "F"fefa fagf | "Bb"gfga "C7"gbag | "F"fefg fgaf | "G7"gfed "C7"c2 fg |
       "F"agfa "C7"gfeg | fedc "F"f2 fg | agfe dcAG | "Gm"F2 D2-"Dm"D2 |]
